components/Company/logos/logo-homeaway.svg

<svg height="140" viewBox="0 0 400 140" width="400" xmlns="http://www.w3.org/2000/svg"><g fill="#0067db" transform="translate(27 41)"><path d="m6.07733464 0v18.4089758h22.76021396v-18.4089758h6.1624514v44h-6.1624514v-20.6384365h-22.76021396v20.6384365h-6.07733464v-44z"/><path d="m78 27.745542c0 11.3195182-9.1877256 16.254458-17.8339349 16.254458-9.6931408 0-17.1660651-6.0761445-17.1660651-15.745542 0-10.2245785 7.8519854-16.254458 17.7617328-16.254458 10.2888088.0154217 17.2382672 6.3845783 17.2382672 15.745542zm-28.3935017.3084338c0 6.7238555 4.5126354 11.766747 10.8844765 11.766747 6.2093863 0 10.8844765-4.9966264 10.8844765-11.8901203 0-5.1971085-3.0324911-11.7667471-10.7220216-11.7667471-7.725632.0154217-11.0469314 6.0915663-11.0469314 11.8901204z"/><path d="m81.2693791 21.1968504c0-3.2283465-.0673448-5.8740157-.2693791-8.4566929h5.3202386l.2693792 5.023622h.2020343c1.8688179-2.9606299 4.9666782-5.7480315 10.5057875-5.7480315 4.5457734 0 7.9971944 2.5669292 9.4619434 6.2519685h.151526c1.043844-1.7322834 2.357067-3.1023622 3.737635-4.0787401 2.003508-1.4015748 4.20905-2.1889764 7.374255-2.1889764 4.411084 0 10.977201 2.7086614 10.977201 13.5748031v18.4094488h-5.960014v-17.6850392c0-6.0000001-2.357068-9.6062993-7.256401-9.6062993-3.451421 0-6.145213 2.3779527-7.172221 5.1653543-.269379.7716536-.471413 1.8110236-.471413 2.8503937v19.2913386h-5.943178v-18.7244094c0-4.976378-2.3402314-8.5984253-6.987022-8.5984253-3.7881446 0-6.549281 2.8503938-7.5257804 5.6692914-.3535602.8346457-.4714135 1.8110236-.4714135 2.7716535v18.8661417h-5.943178z"/><path d="m144.463346 30.0840811c.166201 7.9981108 6.020146 11.2905055 12.83436 11.2905055 4.875209 0 7.792949-.7387812 10.359821-1.6863484l1.144935 4.2399622c-2.400671.9315067-6.50028 2.0717996-12.428092 2.0717996-11.504756 0-18.37437-6.6329713-18.37437-16.4619744 0-9.8290034 6.648013-17.5380256 17.543369-17.5380256 12.206491 0 15.456631 9.331129 15.456631 15.3056211 0 1.2205953-.1662 2.1521021-.2216 2.7463392h-26.315054zm19.907107-4.207841c.092334-3.7581485-1.754336-9.604157-9.418019-9.604157-6.88808 0-9.879686 5.5087388-10.415221 9.604157z"/><path d="m185.34379 30.1553743-4.968207 13.8446257h-6.375583l16.244171-44h7.443832l16.311997 44h-6.596015l-5.103858-13.8446257zm15.667655-4.448386-4.679949-12.6583895c-1.068249-2.8719404-1.763459-5.49414686-2.475625-8.03831147h-.152607c-.712166 2.60659809-1.492158 5.29123807-2.4078 7.96026957l-4.679949 12.7364314z"/><path d="m220.57449 12 4.631633 16.2687748c1.006122 3.5889328 1.960204 6.8616599 2.619387 10.1976284h.22551c.79796-3.256917 1.942857-6.6719368 3.105103-10.1976284l5.724489-16.2687748h5.377551l5.429592 16.0158103c1.301021 3.8418973 2.32449 7.2094862 3.105102 10.4505929h.208163c.572449-3.256917 1.526531-6.6086956 2.688776-10.403162l4.995918-16.0632412h6.314286l-11.292857 32h-5.828572l-5.360204-15.2727274c-1.231632-3.5573121-2.255102-6.750988-3.122449-10.5138339h-.156122c-.884694 3.8418973-1.960204 7.1462451-3.209184 10.5928854l-5.655102 15.1936759h-5.793877l-10.581633-32z"/><path d="m291.447956 37.4718941c0 2.8266416.150558 5.5729808.552044 7.7893246h-5.587361l-.501858-4.095418h-.200744c-1.907063 2.5375531-5.537175 4.8341993-10.355018 4.8341993-6.875465 0-10.355019-4.6254134-10.355019-9.3471893 0-7.8535664 7.276952-12.1417101 20.358736-12.0935287v-.6745394c0-2.6820974-.769517-7.5162967-7.678439-7.5162967-3.144981 0-6.44052.9315069-8.815985 2.4251299l-1.388476-3.9026925c2.793681-1.7505904 6.858736-2.8908833 11.124536-2.8908833 10.355019 0 12.881041 6.7775153 12.881041 13.2980633zm-5.955391-8.817194c-6.708178-.1445441-14.336431 1.0118092-14.336431 7.323571 0 3.8223901 2.659851 5.653283 5.804833 5.653283 4.416356 0 7.210037-2.6820974 8.180297-5.4444971.200743-.6102975.351301-1.2687763.351301-1.8951346z"/><path d="m303.940064 12.0159004 7.68612 19.0169374c.798107 2.1306604 1.682965 4.6429313 2.255519 6.5827861h.156153c.641954-1.9239543 1.370662-4.3885239 2.255519-6.7099896l6.957412-18.9056343h6.749213l-9.577286 22.9284479c-4.025238 9.6674734-7.217667 15.4393364-12.058362 19.2713447-3.105678 2.5122709-6.228704 3.5139992-7.842269 3.8002074l-1.578864-4.9132388c1.578864-.4770134 3.695583-1.3992395 5.58675-2.8620808 1.735014-1.2561356 3.903786-3.5298999 5.378549-6.5191843.277601-.604217.520505-1.0653301.520505-1.3992396s-.156153-.7950225-.451106-1.5105426l-12.977917-28.7798135z"/><path d="m9.59659091 4.18295455c0 2.27045454-2.04545455 4.09602272-4.63636364 4.09602272s-4.67045454-1.82556818-4.67045454-4.09602272c0-2.28579546 2.0625-4.06534091 4.6875-4.06534091 2.57386363 0 4.61931818 1.77954545 4.61931818 4.06534091zm-8.13068182 0c0 1.82556818 1.51704546 3.25227272 3.52840909 3.25227272 1.96022727.04602273 3.44318182-1.42670454 3.44318182-3.20625 0-1.81022727-1.5-3.26761363-3.49431818-3.26761363-1.94318182-.03068182-3.47727273 1.42670454-3.47727273 3.22159091zm2.79545455 2.10170454h-1.05681819v-4.06534091c.42613637-.06136363.98863637-.13806818 1.73863637-.13806818.86931818 0 1.24431818.13806818 1.53409091.32215909.27272727.16875.46022727.47556818.46022727.87443182 0 .49090909-.42613636.81306818-.92045455.96647727v.06136364c.44318182.13806818.64772728.44488636.80113637.98181818.15340909.61363636.25568182.82840909.34090909.98181818h-1.09090909c-.15340909-.15340909-.20454546-.49090909-.35795455-.98181818-.08522727-.41420455-.35795454-.62897727-.95454545-.62897727h-.51136364zm.01704545-2.27045454h.51136364c.5625 0 1.03977272-.16875 1.03977272-.58295455 0-.38352273-.28977272-.62897727-.9715909-.62897727-.27272728 0-.46022728.01534091-.5625.06136363z" transform="translate(336 14)"/></g></svg>

<?xml version="1.0" encoding="UTF-8"?>
<svg width="400px" height="140px" viewBox="0 0 400 140" version="1.1" xmlns="http://www.w3.org/2000/svg" xmlns:xlink="http://www.w3.org/1999/xlink">
    <title>Artboard</title>
    <g id="Artboard" stroke="none" stroke-width="1" fill="none" fill-rule="evenodd">
        <g id="homeaway" transform="translate(27.000000, 41.000000)" fill="#0067DB" fill-rule="nonzero">
            <polygon id="H_3_" points="6.07733464 0 6.07733464 18.4089758 28.8375486 18.4089758 28.8375486 0 35 0 35 44 28.8375486 44 28.8375486 23.3615635 6.07733464 23.3615635 6.07733464 44 0 44 0 0"></polygon>
            <path d="M78,27.745542 C78,39.0650602 68.8122744,44 60.1660651,44 C50.4729243,44 43,37.9238555 43,28.254458 C43,18.0298795 50.8519854,12 60.7617328,12 C71.0505416,12.0154217 78,18.3845783 78,27.745542 Z M49.6064983,28.0539758 C49.6064983,34.7778313 54.1191337,39.8207228 60.4909748,39.8207228 C66.7003611,39.8207228 71.3754513,34.8240964 71.3754513,27.9306025 C71.3754513,22.733494 68.3429602,16.1638554 60.6534297,16.1638554 C52.9277977,16.1792771 49.6064983,22.2554217 49.6064983,28.0539758 Z" id="o_3_"></path>
            <path d="M81.2693791,21.1968504 C81.2693791,17.9685039 81.2020343,15.3228347 81,12.7401575 L86.3202386,12.7401575 L86.5896178,17.7637795 L86.7916521,17.7637795 C88.66047,14.8031496 91.7583303,12.015748 97.2974396,12.015748 C101.843213,12.015748 105.294634,14.5826772 106.759383,18.2677165 L106.910909,18.2677165 C107.954753,16.5354331 109.267976,15.1653543 110.648544,14.1889764 C112.652052,12.7874016 114.857594,12 118.022799,12 C122.433883,12 129,14.7086614 129,25.5748031 L129,43.9842519 L123.039986,43.9842519 L123.039986,26.2992127 C123.039986,20.2992126 120.682918,16.6929134 115.783585,16.6929134 C112.332164,16.6929134 109.638372,19.0708661 108.611364,21.8582677 C108.341985,22.6299213 108.139951,23.6692913 108.139951,24.7086614 L108.139951,44 L102.196773,44 L102.196773,25.2755906 C102.196773,20.2992126 99.8565416,16.6771653 95.209751,16.6771653 C91.4216064,16.6771653 88.66047,19.5275591 87.6839706,22.3464567 C87.3304104,23.1811024 87.2125571,24.1574803 87.2125571,25.1181102 L87.2125571,43.9842519 L81.2693791,43.9842519 L81.2693791,21.1968504 Z" id="m_3_"></path>
            <path d="M144.463346,30.0840811 C144.629547,38.0821919 150.483492,41.3745866 157.297706,41.3745866 C162.172915,41.3745866 165.090655,40.6358054 167.657527,39.6882382 L168.802462,43.9282004 C166.401791,44.8597071 162.302182,46 156.37437,46 C144.869614,46 138,39.3670287 138,29.5380256 C138,19.7090222 144.648013,12 155.543369,12 C167.74986,12 171,21.331129 171,27.3056211 C171,28.5262164 170.8338,29.4577232 170.7784,30.0519603 L144.463346,30.0519603 L144.463346,30.0840811 Z M164.370453,25.8762401 C164.462787,22.1180916 162.616117,16.2720831 154.952434,16.2720831 C148.064354,16.2720831 145.072748,21.7808219 144.537213,25.8762401 L164.370453,25.8762401 Z" id="e_3_"></path>
            <path d="M185.34379,30.1553743 L180.375583,44 L174,44 L190.244171,0 L197.688003,0 L214,44 L207.403985,44 L202.300127,30.1553743 L185.34379,30.1553743 Z M201.011445,25.7069883 L196.331496,13.0485988 C195.263247,10.1766584 194.568037,7.55445194 193.855871,5.01028733 L193.703264,5.01028733 C192.991098,7.61688542 192.211106,10.3015254 191.295464,12.9705569 L186.615515,25.7069883 L201.011445,25.7069883 Z" id="A_3_"></path>
            <path d="M220.57449,12 L225.206123,28.2687748 C226.212245,31.8577076 227.166327,35.1304347 227.82551,38.4664032 L228.05102,38.4664032 C228.84898,35.2094862 229.993877,31.7944664 231.156123,28.2687748 L236.880612,12 L242.258163,12 L247.687755,28.0158103 C248.988776,31.8577076 250.012245,35.2252965 250.792857,38.4664032 L251.00102,38.4664032 C251.573469,35.2094862 252.527551,31.8577076 253.689796,28.0632412 L258.685714,12 L265,12 L253.707143,44 L247.878571,44 L242.518367,28.7272726 C241.286735,25.1699605 240.263265,21.9762846 239.395918,18.2134387 L239.239796,18.2134387 C238.355102,22.055336 237.279592,25.3596838 236.030612,28.8063241 L230.37551,44 L224.581633,44 L214,12 L220.57449,12 Z" id="w_3_"></path>
            <path d="M291.447956,37.4718941 C291.447956,40.2985357 291.598514,43.0448749 292,45.2612187 L286.412639,45.2612187 L285.910781,41.1658007 L285.710037,41.1658007 C283.802974,43.7033538 280.172862,46 275.355019,46 C268.479554,46 265,41.3745866 265,36.6528107 C265,28.7992443 272.276952,24.5111006 285.358736,24.559282 L285.358736,23.8847426 C285.358736,21.2026452 284.589219,16.3684459 277.680297,16.3684459 C274.535316,16.3684459 271.239777,17.2999528 268.864312,18.7935758 L267.475836,14.8908833 C270.269517,13.1402929 274.334572,12 278.600372,12 C288.955391,12 291.481413,18.7775153 291.481413,25.2980633 L291.447956,37.4718941 Z M285.492565,28.6547001 C278.784387,28.510156 271.156134,29.6665093 271.156134,35.9782711 C271.156134,39.8006612 273.815985,41.6315541 276.960967,41.6315541 C281.377323,41.6315541 284.171004,38.9494567 285.141264,36.187057 C285.342007,35.5767595 285.492565,34.9182807 285.492565,34.2919224 L285.492565,28.6547001 Z" id="a_3_"></path>
            <path d="M303.940064,12.0159004 L311.626184,31.0328378 C312.424291,33.1634982 313.309149,35.6757691 313.881703,37.6156239 L314.037856,37.6156239 C314.67981,35.6916696 315.408518,33.2271 316.293375,30.9056343 L323.250787,12 L330,12 L320.422714,34.9284479 C316.397476,44.5959213 313.205047,50.3677843 308.364352,54.1997926 C305.258674,56.7120635 302.135648,57.7137918 300.522083,58 L298.943219,53.0867612 C300.522083,52.6097478 302.638802,51.6875217 304.529969,50.2246804 C306.264983,48.9685448 308.433755,46.6947805 309.908518,43.7054961 C310.186119,43.1012791 310.429023,42.640166 310.429023,42.3062565 C310.429023,41.972347 310.27287,41.511234 309.977917,40.7957139 L297,12.0159004 L303.940064,12.0159004 Z" id="y_3_"></path>
            <g id="_xAE__3_" transform="translate(336.000000, 14.000000)">
                <path d="M9.59659091,4.18295455 C9.59659091,6.45340909 7.55113636,8.27897727 4.96022727,8.27897727 C2.36931818,8.27897727 0.289772727,6.45340909 0.289772727,4.18295455 C0.289772727,1.89715909 2.35227273,0.117613636 4.97727273,0.117613636 C7.55113636,0.117613636 9.59659091,1.89715909 9.59659091,4.18295455 Z M1.46590909,4.18295455 C1.46590909,6.00852273 2.98295455,7.43522727 4.99431818,7.43522727 C6.95454545,7.48125 8.4375,6.00852273 8.4375,4.22897727 C8.4375,2.41875 6.9375,0.961363636 4.94318182,0.961363636 C3,0.930681818 1.46590909,2.38806818 1.46590909,4.18295455 Z M4.26136364,6.28465909 L3.20454545,6.28465909 L3.20454545,2.21931818 C3.63068182,2.15795455 4.19318182,2.08125 4.94318182,2.08125 C5.8125,2.08125 6.1875,2.21931818 6.47727273,2.40340909 C6.75,2.57215909 6.9375,2.87897727 6.9375,3.27784091 C6.9375,3.76875 6.51136364,4.09090909 6.01704545,4.24431818 L6.01704545,4.30568182 C6.46022727,4.44375 6.66477273,4.75056818 6.81818182,5.2875 C6.97159091,5.90113636 7.07386364,6.11590909 7.15909091,6.26931818 L6.06818182,6.26931818 C5.91477273,6.11590909 5.86363636,5.77840909 5.71022727,5.2875 C5.625,4.87329545 5.35227273,4.65852273 4.75568182,4.65852273 L4.24431818,4.65852273 L4.26136364,6.28465909 Z M4.27840909,4.01420455 L4.78977273,4.01420455 C5.35227273,4.01420455 5.82954545,3.84545455 5.82954545,3.43125 C5.82954545,3.04772727 5.53977273,2.80227273 4.85795455,2.80227273 C4.58522727,2.80227273 4.39772727,2.81761364 4.29545455,2.86363636 L4.27840909,4.01420455 Z" id="Shape"></path>
            </g>
        </g>
    </g>
</svg>
